X: 193
T: SLIP JIG: Foxhunter's (Dmaj)
C: C: Trad.; S: Various
C: Set Leaders: Olya, Tania, Anton
Z: Anton Zille ed., Oleg Naumov arr.; Netallica at The Session
N: https://thesession.org/members/26966/sets/76538
R: Slip Jig
M: 9/8
L: 1/8
Q: 3/8=114
K: Dmaj
|:"D"FDF FDF "G"G2E|"D"FDF FED "A"E2D|"D"FDF FDF "G"G2B|"D"AFD DEF "A"E2D:||
|:"Em"B3 BAG "D"FGA|"G"B2E E2F "A"G2B|"D"ABc dcB "A"ABc|"D"d2D DEF "A"E2D:||
|:"D"fdf fdf "G"g2e|"D"fdf fed "A"e2d|"D"fdf fdf "G"g2b|"D"afd def "A"e2d:||
|:"Em"gfe d=cB "D"AGA|"G"B2 E E2 F "A"G2 B|"D"ABc dcB "A"ABc|"D"d2 D DEF "A"E2 D:||

